X: 21120
T: Karen's Critters
R: jig
M: 6/8
K: Gmajor
|:dGG d3|efg dBG|BAA DFA|BAA DGA|
dGG ~d3|efg dBG|BAA DFA|BAF G2z:|
|:efg dGG|efg dGG|BAA DFA|BAA DGA|
efg dGG|gfe dGG|BAA DFA|BAF G2z:|

